X:340
T: Kylebrack Ramblers
S: "First Collection of Traditional Irish Music" (M.Mulvihill)
Z: B.Black
L: 1/8
M: 4/4
R: reel
K: Dmix
DA,A,A, DA,=FA,|DA,A,A, CA,G,A,|DA,A,A, DA,DA|\
=FDA^F G2 FG|
Adde dcAB|cGAc GECD|CB,A,G, A,D (3DCD|1\
FAGE D4 :|2 FAGE DEFG||
AFGA FD (3DCD|dedc AGdB|c2 Gc (3EFG ce|dced cAGA|
d2 fA dA (3AGA|cA (3AGA =FADA|(3GAG EG CDEG|1\
cAGE D2 FG :|2 cAGE D2 FG||
AD (3DCD A,D (3DCD|dA (3AGA dcAB|c2 Bd cAGE|\
CcBd cGEG|
FD (3DCD A,D (3DCD|dA (3AGA dcAB|c2 (3dcB cAGE|1\
CEGE D2 (3EFG :|2 CEGE D4 ||
